trunk/public/assets/images/icons/blue/remove/twitter2.svg

<svg width="16" height="16" xmlns="http://www.w3.org/2000/svg" viewBox="0 0 16 16" shape-rendering="geometricPrecision" fill="#24437c"><defs><mask id="a"><rect fill="#fff" width="100%" height="100%"/><path fill="#000" d="M8.986 1.143H17v3.565H8.986z"/></mask></defs><path d="M9.986 2.143H16v1.565H9.986z" fill="#cb1800"/><g mask="url(#a)"><path d="M13.942 1.97v-.008H2V13.97h12v-12h-.058zm-.942 11H3v-10h10v10z"/><path d="M7.912 11.97h2.1c.614 0 .91-.382.91-.952s-.428-.903-.928-.903h-1.98c-.927 0-1.212-.57-1.212-1.14v-.572h3.192c.643 0 1.035-.32 1.035-.963 0-.537-.458-.892-1.1-.892H6.784s-.018-.816-.018-1.457c0-.552-.306-1.046-.917-1.046-.57 0-.85.433-.85 1.13V9.26c0 2.007 1.114 2.71 2.912 2.71z"/></g></svg>

<?xml version="1.0"?><!DOCTYPE svg PUBLIC "-//W3C//DTD SVG 1.1//EN" "http://www.w3.org/Graphics/SVG/1.1/DTD/svg11.dtd"><svg width="16px" height="16px" xmlns="http://www.w3.org/2000/svg" viewBox="0 0 16 16" shape-rendering="geometricPrecision" fill="#24437c"><defs><mask id="remove-path"><rect fill="#fff" width="100%" height="100%"/><rect x="8.986" y="1.143" width="8.014" height="3.565" fill="#000"/></mask></defs><g fill="#cb1800"><rect x="9.986" y="2.143" width="6.014" height="1.565"/></g><g mask="url(#remove-path)"><path d="M13.942,1.97V1.962H2V1.97h0v12h0h1h10h1v-1v-11H13.942z M13,12.97H3v-10h10V12.97z"/><path d="M7.912,11.97c1.284,0,1.315,0,2.1,0c0.614,0,0.91-0.382,0.91-0.952c0-0.57-0.428-0.903-0.928-0.903 c-0.499,0-0.98,0-1.979,0c-0.928,0-1.213-0.569-1.213-1.141s0-0.571,0-0.571s2.55,0,3.192,0c0.643,0,1.035-0.32,1.035-0.963 c0-0.537-0.457-0.892-1.099-0.892c-0.642,0-3.146,0-3.146,0S6.766,5.732,6.766,5.091c0-0.553-0.306-1.047-0.917-1.047 c-0.57,0-0.85,0.433-0.85,1.129c0,0.927,0,2.161,0,4.088C4.999,11.267,6.114,11.97,7.912,11.97z"/></g></svg>
